!!!OTL: Yonghu gongchandang
!!!ARE: Asia, China,ÿLiaoning Chifeng
!! III, 230
!!!SCT: C1737
!!!YEM: Copyright 1995, estate of Helmut Schaffrath.
**kern
*ICvox
*Ivox
*M2/4
*k[f#]
*G:
{8b
8dd
8ee
8gg
=1
2dd
=2
8b
8dd
8ee
8gg
=3
2dd}
=4
{8gg
8aa
4bb
=5
4aa
4gg
=6
8ee
8dd
8ee
8gg
=7
2dd}
=8
{8gg
8ee
4gg
=9
8dd
8gg
8ee
8dd
=10
8gg
8ee
4gg
=11
4aa
8b
8a
=12
8g
4g
8b
=13
2a}
=14
{4.dd
8b
=15
8dd
8ee
8dd
8b
=16
8a
8b
8dd
8ee
=17
4b
8r
8a
=18
8.b
16a
8g
8a
=19
2g}
=20
{4.r
8ddd
=21
8.bb
16aa
8gg
8aa
=22
[2gg
=23
2gg]}
==
!!!AGN: Xiaodiao, Shisanyue diao
!!!AMT: simple duple
!!!AIN: vox
!!!EED: Helmut Schaffrath
!!!EEV: 1.0
*-
!!!ONB: Tied note syntax fixed by Craig Sapp, 2004/05/03/
